!!!OTL: Reif und Schnee
!!!ARE: Europa, Mitteleuropa, Deutschland
!!!SCT: A0155
!!!YEM: Copyright 1995, estate of Helmut Schaffrath.
**kern
*ICvox
*Ivox
*M4/4
*k[b-]
*F:
{4f
=1
4a
4a
4b-
4b-
=2
4cc
4cc
4f
4f
=3
4.cc
8cc
4cc
4cc
=4
2g
4r}
{4g
=5
4a
4b-
4cc
4b-
=6
4a
8g
8f
4e
4e
=7
4d
4c
4d
4e
=8
2.f}
==
!!!AGN: Romanze, Ballade, Lied
!! Melodie aus 4 Stellen zusammengesetzt, die 1611 in Melch. Francks
!!    Fasc. quodlib. No. 7 vorkommen.
!!!ONB: ESAC (Essen Associative Code) Database: ALTDEU
!!!AMT: simple quadruple
!!!AIN: vox
!!!EED: Helmut Schaffrath
!!!EEV: 1.0
*-
